assets/icons/teeth-whitening.svg

<svg width="24" height="24" viewBox="0 0 24 24" fill="none" xmlns="http://www.w3.org/2000/svg">
    <path fill-rule="evenodd" clip-rule="evenodd" d="M12.024 6.74301C12.0882 6.80808 12.1282 6.8932 12.1373 6.98418C12.1464 7.07515 12.1241 7.1665 12.074 7.24301C12.053 7.27452 12.0316 7.30586 12.01 7.33701L12.009 7.33901L11.819 7.61401C11.601 7.93601 11.477 8.17401 11.477 8.38101C11.477 8.58801 11.601 8.82601 11.82 9.14801L12.07 9.51301C12.1223 9.58949 12.1465 9.68178 12.1383 9.77409C12.1302 9.8664 12.0902 9.95301 12.0253 10.0191C11.9603 10.0852 11.8744 10.1268 11.7823 10.1366C11.6901 10.1464 11.5974 10.1239 11.52 10.073C11.4882 10.0522 11.4565 10.0312 11.425 10.01L11.423 10.008L11.148 9.81901C10.826 9.60101 10.588 9.47701 10.381 9.47701C10.174 9.47701 9.93602 9.60101 9.61402 9.82001L9.24902 10.069C9.17253 10.1213 9.08025 10.1455 8.98794 10.1373C8.89563 10.1291 8.80902 10.0892 8.7429 10.0242C8.67679 9.9593 8.63527 9.87342 8.62544 9.78128C8.61561 9.68913 8.63809 9.59642 8.68902 9.51901L8.75202 9.42501L8.75402 9.42301L8.94302 9.14701C9.16102 8.82601 9.28502 8.58801 9.28502 8.38101C9.28502 8.17401 9.16102 7.93601 8.94202 7.61401L8.69302 7.24901C8.6407 7.17252 8.61656 7.08024 8.62473 6.98793C8.63289 6.89561 8.67285 6.809 8.73779 6.74289C8.80273 6.67677 8.8886 6.63525 8.98075 6.62542C9.0729 6.6156 9.1656 6.63807 9.24302 6.68901L9.33702 6.75201L9.33902 6.75301L9.61502 6.94301C9.93602 7.16101 10.174 7.28501 10.381 7.28501C10.544 7.28501 10.739 7.19501 11.009 7.02101L11.359 6.79101L11.386 6.83101L11.39 6.82501L11.365 6.78601L11.525 6.68601C11.6022 6.63708 11.6938 6.61606 11.7846 6.62643C11.8754 6.6368 11.9599 6.67794 12.024 6.74301V6.74301ZM10.72 8.04001C10.4976 8.0986 10.2638 8.09929 10.041 8.04201C10.068 8.15201 10.084 8.26401 10.084 8.38101C10.084 8.49701 10.068 8.61101 10.041 8.72001C10.151 8.69301 10.264 8.67701 10.381 8.67701C10.497 8.67701 10.61 8.69301 10.719 8.72001C10.6909 8.60885 10.6764 8.49467 10.676 8.38001C10.676 8.26401 10.692 8.15001 10.72 8.04001V8.04001Z" fill="#485FC7"/>
    <path d="M13.535 4.595C12.95 4.945 12.251 4.945 11.665 4.595C9.13498 3.085 6.09998 5.213 6.09998 8.495C6.09998 10.561 7.58698 19.1 9.91298 19.1C10.729 19.1 11.471 17.142 12.183 15.17C12.336 14.745 12.863 14.745 13.018 15.17C13.729 17.142 14.472 19.1 15.288 19.1C17.59 19.1 19.1 10.627 19.1 8.495C19.1 5.214 16.066 3.085 13.535 4.595V4.595ZM15.287 18.318C14.805 18.318 14.207 16.426 13.645 14.871C13.259 13.802 11.941 13.801 11.555 14.871C10.995 16.426 10.395 18.318 9.91298 18.318C8.42598 18.318 6.77898 10.921 6.77898 8.495C6.77898 5.795 9.27698 4.05 11.352 5.289C11.728 5.51792 12.1597 5.639 12.6 5.639C13.0402 5.639 13.4719 5.51792 13.848 5.289C15.921 4.051 18.421 5.792 18.421 8.495C18.421 10.91 16.775 18.318 15.287 18.318V18.318Z" fill="#485FC7"/>
    <path fill-rule="evenodd" clip-rule="evenodd" d="M13.535 4.59503L13.484 4.50903C14.786 3.73203 16.22 3.89203 17.324 4.66603C18.427 5.43903 19.2 6.82304 19.2 8.49604C19.2 9.57304 18.82 12.234 18.153 14.624C17.82 15.819 17.413 16.954 16.942 17.792C16.706 18.211 16.452 18.56 16.179 18.806C15.906 19.052 15.608 19.2 15.287 19.2C15.042 19.2 14.817 19.053 14.615 18.83C14.41 18.607 14.215 18.291 14.025 17.92C13.645 17.177 13.279 16.19 12.924 15.205C12.86 15.029 12.726 14.951 12.6 14.951C12.474 14.951 12.34 15.029 12.276 15.205C11.921 16.189 11.556 17.177 11.176 17.92C10.986 18.291 10.79 18.607 10.586 18.83C10.383 19.053 10.158 19.2 9.913 19.2C9.589 19.2 9.289 19.051 9.014 18.803C8.74 18.556 8.484 18.203 8.249 17.783C7.777 16.939 7.37 15.798 7.038 14.599C6.374 12.2 6 9.54003 6 8.49503C6 6.82303 6.774 5.43903 7.876 4.66603C8.981 3.89203 10.414 3.73203 11.716 4.50903C12.27 4.84003 12.93 4.84003 13.484 4.50903L13.535 4.59503V4.59503ZM11.555 14.871L11.461 14.837C11.668 14.265 12.129 13.969 12.601 13.969C13.071 13.969 13.532 14.265 13.739 14.837L13.646 14.87L13.739 14.837L13.959 15.453C14.169 16.048 14.381 16.647 14.588 17.139C14.728 17.471 14.862 17.749 14.99 17.943C15.053 18.04 15.113 18.112 15.166 18.158C15.221 18.205 15.26 18.218 15.287 18.218C15.431 18.218 15.594 18.128 15.775 17.928C15.954 17.731 16.135 17.441 16.315 17.078C16.675 16.355 17.018 15.36 17.315 14.286C17.912 12.136 18.321 9.69004 18.321 8.49604C18.321 7.17504 17.711 6.09503 16.855 5.49603C16 4.89803 14.899 4.77803 13.899 5.37603C13.5075 5.6141 13.0582 5.74001 12.6 5.74001C12.1418 5.74001 11.6925 5.6141 11.301 5.37603C10.301 4.77803 9.199 4.89803 8.345 5.49603C7.489 6.09603 6.879 7.17604 6.879 8.49604C6.879 9.69504 7.288 12.141 7.885 14.29C8.183 15.363 8.525 16.357 8.885 17.08C9.065 17.442 9.247 17.731 9.425 17.929C9.605 18.129 9.769 18.219 9.913 18.219C9.94 18.219 9.979 18.205 10.033 18.159C10.087 18.112 10.147 18.04 10.211 17.943C10.3676 17.6871 10.5017 17.4181 10.612 17.139C10.819 16.647 11.031 16.049 11.242 15.453C11.315 15.246 11.388 15.039 11.462 14.837L11.555 14.871V14.871ZM11.352 5.28903C11.728 5.51795 12.1598 5.63904 12.6 5.63904C13.0402 5.63904 13.472 5.51795 13.848 5.28903C15.921 4.05103 18.421 5.79203 18.421 8.49503C18.421 10.911 16.775 18.318 15.287 18.318C14.867 18.318 14.358 16.882 13.863 15.484L13.645 14.871C13.259 13.802 11.941 13.801 11.555 14.871L11.337 15.484C10.842 16.882 10.333 18.318 9.913 18.318C8.426 18.318 6.779 10.921 6.779 8.49503C6.779 5.79503 9.276 4.05003 11.352 5.28903ZM11.665 4.59503C12.25 4.94503 12.95 4.94503 13.535 4.59503C16.066 3.08503 19.1 5.21403 19.1 8.49503C19.1 10.627 17.59 19.1 15.287 19.1C14.471 19.1 13.729 17.142 13.017 15.17C12.864 14.745 12.337 14.745 12.182 15.17C11.471 17.142 10.728 19.1 9.912 19.1C7.588 19.1 6.1 10.56 6.1 8.49503C6.1 5.21303 9.135 3.08503 11.665 4.59503V4.59503Z" fill="#485FC7"/>
</svg>

<svg width="24" height="24" fill="none" xmlns="http://www.w3.org/2000/svg"><path fill-rule="evenodd" clip-rule="evenodd" d="M12.024 6.743a.4.4 0 0 1 .05.5 6.17 6.17 0 0 1-.064.094l-.001.002-.19.275c-.218.322-.342.56-.342.767 0 .207.124.445.343.767l.25.365a.4.4 0 0 1-.55.56 8.677 8.677 0 0 1-.095-.063l-.002-.002-.275-.189c-.322-.218-.56-.342-.767-.342-.207 0-.445.124-.767.343l-.365.249a.4.4 0 0 1-.56-.55l.063-.094.002-.002.189-.276c.218-.321.342-.559.342-.766 0-.207-.124-.445-.343-.767l-.249-.365a.4.4 0 0 1 .55-.56l.094.063.002.001.276.19c.321.218.559.342.766.342.163 0 .358-.09.628-.264l.35-.23.027.04.004-.006-.025-.039.16-.1a.4.4 0 0 1 .499.057ZM10.72 8.04c-.222.059-.456.06-.679.002.027.11.043.222.043.339 0 .116-.016.23-.043.339a1.42 1.42 0 0 1 .34-.043c.116 0 .229.016.338.043a1.378 1.378 0 0 1 .001-.68Z" fill="#485FC7"/><path d="M13.535 4.595c-.585.35-1.284.35-1.87 0-2.53-1.51-5.565.618-5.565 3.9C6.1 10.561 7.587 19.1 9.913 19.1c.816 0 1.558-1.958 2.27-3.93.153-.425.68-.425.835 0 .711 1.972 1.454 3.93 2.27 3.93 2.302 0 3.812-8.473 3.812-10.605 0-3.281-3.034-5.41-5.565-3.9Zm1.752 13.723c-.482 0-1.08-1.892-1.642-3.447-.386-1.069-1.704-1.07-2.09 0-.56 1.555-1.16 3.447-1.642 3.447-1.487 0-3.134-7.397-3.134-9.823 0-2.7 2.498-4.445 4.573-3.206a2.4 2.4 0 0 0 2.496 0c2.073-1.238 4.573.503 4.573 3.206 0 2.415-1.646 9.823-3.134 9.823Z" fill="#485FC7"/><path fill-rule="evenodd" clip-rule="evenodd" d="m13.535 4.595-.051-.086c1.302-.777 2.736-.617 3.84.157 1.103.773 1.876 2.157 1.876 3.83 0 1.077-.38 3.738-1.047 6.128-.333 1.195-.74 2.33-1.211 3.168-.236.419-.49.768-.763 1.014s-.571.394-.892.394c-.245 0-.47-.147-.672-.37-.205-.223-.4-.539-.59-.91-.38-.743-.746-1.73-1.101-2.715-.064-.176-.198-.254-.324-.254s-.26.078-.324.254c-.355.984-.72 1.972-1.1 2.715-.19.371-.386.687-.59.91-.203.223-.428.37-.673.37-.324 0-.624-.149-.899-.397-.274-.247-.53-.6-.765-1.02-.472-.844-.879-1.985-1.211-3.184C6.374 12.2 6 9.54 6 8.495c0-1.672.774-3.056 1.876-3.829 1.105-.774 2.538-.934 3.84-.157a1.698 1.698 0 0 0 1.768 0l.051.086Zm-1.98 10.276-.094-.034c.207-.572.668-.868 1.14-.868.47 0 .931.296 1.138.868l-.093.033.093-.033.22.616c.21.595.422 1.194.629 1.686.14.332.274.61.402.804.063.097.123.169.176.215.055.047.094.06.121.06.144 0 .307-.09.488-.29.179-.197.36-.487.54-.85.36-.723.703-1.718 1-2.792.597-2.15 1.006-4.596 1.006-5.79 0-1.321-.61-2.401-1.466-3-.855-.598-1.956-.718-2.956-.12a2.5 2.5 0 0 1-2.598 0c-1-.598-2.102-.478-2.956.12-.856.6-1.466 1.68-1.466 3 0 1.199.409 3.645 1.006 5.794.298 1.073.64 2.067 1 2.79.18.362.362.651.54.849.18.2.344.29.488.29.027 0 .066-.014.12-.06.054-.047.114-.119.178-.216.157-.256.29-.525.401-.804.207-.492.419-1.09.63-1.686.073-.207.146-.414.22-.616l.093.034Zm-.203-9.582a2.4 2.4 0 0 0 2.496 0c2.073-1.238 4.573.503 4.573 3.206 0 2.416-1.646 9.823-3.134 9.823-.42 0-.929-1.436-1.424-2.834l-.218-.613c-.386-1.069-1.704-1.07-2.09 0l-.218.613c-.495 1.398-1.004 2.834-1.424 2.834-1.487 0-3.134-7.397-3.134-9.823 0-2.7 2.497-4.445 4.573-3.206Zm.313-.694c.585.35 1.285.35 1.87 0 2.531-1.51 5.565.619 5.565 3.9 0 2.132-1.51 10.605-3.813 10.605-.816 0-1.558-1.958-2.27-3.93-.153-.425-.68-.425-.835 0-.711 1.972-1.454 3.93-2.27 3.93C7.588 19.1 6.1 10.56 6.1 8.495c0-3.282 3.035-5.41 5.565-3.9Z" fill="#485FC7"/></svg>
